X: 63
T:Curlews, The
M:C|
L:1/8
C:Josephine Keegan
R:Reel
K:BDor
fB~B2 Bcde|fece agae|(3fga ed cA~A2|GAce agba|!
fB~B2 Bcde|fece agaf|~=g3e ~f3e|dBBA FB~B2:|!
|:(3Bcd cd BF~F2|DF~F2 Bcdf|ecBc AE~E2|CEAB cedc|!
(3Bcd cd BF~F2|DF~F2 Bcdf|ecBA fcec|dcBA FB~B2:|]!
